X: 124
T:Doctor Vincent's Delight
T:Vera's Valedictory
C:Charles Bolton
M:6/8
L:1/8
K:D
"D"D3 d3|"G"Bcd "D"AFE|"D"D2d "G"Bcd|"A"e3 A3|
"D"dfd "A"ecA|"G"BdB "A"AFE|"D"D2d "A"edc|"D"d6:|
|:"D"f3 a2f|"A"e2g "D"fed|f3 a2f|"A"e3-ede|
"D"f3 a2f|"A"efg "D"fed|f2a "E"ba^g|"A"a3 -a2b|
"C"=c'2c' c'ba|"G"b2b bag|"D"a2a agf|"Em"efg "A"cBA|
"G"B2d "A"cde|"Bm"d2f "A"efg|"D"fga "A"gfe|"D"d6:|

